X: 17
T:Pibdawns Merthyr Tydfil
T:The Merthyr Tydfil Hornpipe
M:C|
L:1/16
Q:200
S: Source unknown
R:Hornpipe
A:Wales
Z:brian_martin12345@yahoo.com
K:G
d2|gdBd ecAc|BdBG FAFD|GDBG cABG|F2A2 A2d2|
gdBd ecAc|BdBG FAFD|gfge dcBA|B2G2G2:||
d2|gdBd gfga|babg afed|egec BdBG|F2A2 A2d2|
gdBd gfga|babg afed|cege dfaf|bgaf g2:||
